src/images/rk-logo.svg

<svg xmlns="http://www.w3.org/2000/svg" width="156" height="156" fill="none" viewBox="0 0 156 156">
  <path fill="#fff" d="M128 0 78 50v56l50 50 28-28-50-50 50-50-28-28ZM50 0H0v106l50 50 28-28-50-50 50-50L50 0Z"/>
</svg>

<svg width="156" height="156" viewBox="0 0 156 156" fill="none" xmlns="http://www.w3.org/2000/svg">
<g clip-path="url(#clip0_326_54839)">
<path d="M128 0L78 50V106L128 156L156 128L106 78L156 28L128 0Z" fill="white"/>
<path d="M50 0H0V106L50 156L78 128L28 78L78 28L50 0Z" fill="white"/>
</g>
<defs>
<clipPath id="clip0_326_54839">
<rect width="156" height="156" fill="white"/>
</clipPath>
</defs>
</svg>
